svgs/light/ruler-horizontal.svg

<svg xmlns="http://www.w3.org/2000/svg" viewBox="0 0 640 512"><!--! Font Awesome Pro 6.6.0 by @fontawesome - https://fontawesome.com License - https://fontawesome.com/license (Commercial License) Copyright 2024 Fonticons, Inc. --><path d="M32 320c0 17.7 14.3 32 32 32l512 0c17.7 0 32-14.3 32-32l0-128c0-17.7-14.3-32-32-32l-48 0 0 64c0 8.8-7.2 16-16 16s-16-7.2-16-16l0-64-64 0 0 64c0 8.8-7.2 16-16 16s-16-7.2-16-16l0-64-64 0 0 64c0 8.8-7.2 16-16 16s-16-7.2-16-16l0-64-64 0 0 64c0 8.8-7.2 16-16 16s-16-7.2-16-16l0-64-64 0 0 64c0 8.8-7.2 16-16 16s-16-7.2-16-16l0-64-48 0c-17.7 0-32 14.3-32 32l0 128zm32 64c-35.3 0-64-28.7-64-64L0 192c0-35.3 28.7-64 64-64l512 0c35.3 0 64 28.7 64 64l0 128c0 35.3-28.7 64-64 64L64 384z"/></svg>

<svg xmlns="http://www.w3.org/2000/svg" viewBox="0 0 640 512"><!--! Font Awesome Pro 6.4.0 by @fontawesome - https://fontawesome.com License - https://fontawesome.com/license (Commercial License) Copyright 2023 Fonticons, Inc. --><path d="M32 320c0 17.7 14.3 32 32 32l512 0c17.7 0 32-14.3 32-32V192c0-17.7-14.3-32-32-32l-48 0v64c0 8.8-7.2 16-16 16s-16-7.2-16-16V160H432v64c0 8.8-7.2 16-16 16s-16-7.2-16-16V160H336v64c0 8.8-7.2 16-16 16s-16-7.2-16-16V160H240v64c0 8.8-7.2 16-16 16s-16-7.2-16-16V160H144v64c0 8.8-7.2 16-16 16s-16-7.2-16-16V160l-48 0c-17.7 0-32 14.3-32 32l0 128zm32 64c-35.3 0-64-28.7-64-64V192c0-35.3 28.7-64 64-64H576c35.3 0 64 28.7 64 64V320c0 35.3-28.7 64-64 64L64 384z"/></svg>
